; G-Code generated by Simplify3D(R) Version 4.1.1
; Mar 26, 2020 at 8:45:34 AM
; Settings Summary
;   processName,Process1
;   applyToModels,Main Housing v0
;   profileName,Ender 3 (modified)
;   profileVersion,2018-06-08 13:27:13
;   baseProfile,Creality CR-10 Mini
;   printMaterial,PLA
;   printQuality,Medium
;   printExtruders,
;   extruderName,Primary Extruder
;   extruderToolheadNumber,0
;   extruderDiameter,0.4
;   extruderAutoWidth,1
;   extruderWidth,0.48
;   extrusionMultiplier,1
;   extruderUseRetract,1
;   extruderRetractionDistance,5
;   extruderExtraRestartDistance,0
;   extruderRetractionZLift,1
;   extruderRetractionSpeed,1800
;   extruderUseCoasting,1
;   extruderCoastingDistance,0.2
;   extruderUseWipe,0
;   extruderWipeDistance,5
;   primaryExtruder,0
;   layerHeight,0.2
;   topSolidLayers,4
;   bottomSolidLayers,4
;   perimeterOutlines,3
;   printPerimetersInsideOut,1
;   startPointOption,3
;   startPointOriginX,0
;   startPointOriginY,110
;   sequentialIslands,0
;   spiralVaseMode,0
;   firstLayerHeightPercentage,95
;   firstLayerWidthPercentage,105
;   firstLayerUnderspeed,0.4
;   useRaft,0
;   raftExtruder,0
;   raftTopLayers,3
;   raftBaseLayers,2
;   raftOffset,3
;   raftSeparationDistance,0.14
;   raftTopInfill,100
;   aboveRaftSpeedMultiplier,0.3
;   useSkirt,0
;   skirtExtruder,0
;   skirtLayers,1
;   skirtOutlines,2
;   skirtOffset,4
;   usePrimePillar,0
;   primePillarExtruder,999
;   primePillarWidth,12
;   primePillarLocation,7
;   primePillarSpeedMultiplier,1
;   useOozeShield,0
;   oozeShieldExtruder,999
;   oozeShieldOffset,2
;   oozeShieldOutlines,1
;   oozeShieldSidewallShape,1
;   oozeShieldSidewallAngle,30
;   oozeShieldSpeedMultiplier,1
;   infillExtruder,0
;   internalInfillPattern,Rectilinear
;   externalInfillPattern,Rectilinear
;   infillPercentage,15
;   outlineOverlapPercentage,15
;   infillExtrusionWidthPercentage,100
;   minInfillLength,5
;   infillLayerInterval,1
;   internalInfillAngles,45,-45
;   overlapInternalInfillAngles,0
;   externalInfillAngles,45,-45
;   generateSupport,1
;   supportExtruder,0
;   supportInfillPercentage,20
;   supportExtraInflation,1
;   supportBaseLayers,2
;   denseSupportExtruder,0
;   denseSupportLayers,2
;   denseSupportInfillPercentage,70
;   supportLayerInterval,1
;   supportHorizontalPartOffset,0.3
;   supportUpperSeparationLayers,1
;   supportLowerSeparationLayers,1
;   supportType,1
;   supportGridSpacing,4
;   maxOverhangAngle,45
;   supportAngles,45
;   temperatureName,Primary Extruder,Heated Bed
;   temperatureNumber,0,1
;   temperatureSetpointCount,2,1
;   temperatureSetpointLayers,1,2,1
;   temperatureSetpointTemperatures,210,195,40
;   temperatureStabilizeAtStartup,1,1
;   temperatureHeatedBed,0,1
;   fanLayers,1,2
;   fanSpeeds,0,100
;   blipFanToFullPower,0
;   adjustSpeedForCooling,1
;   minSpeedLayerTime,15
;   minCoolingSpeedSlowdown,20
;   increaseFanForCooling,0
;   minFanLayerTime,45
;   maxCoolingFanSpeed,100
;   increaseFanForBridging,0
;   bridgingFanSpeed,100
;   use5D,1
;   relativeEdistances,0
;   allowEaxisZeroing,1
;   independentExtruderAxes,0
;   includeM10123,0
;   stickySupport,1
;   applyToolheadOffsets,0
;   gcodeXoffset,0
;   gcodeYoffset,0
;   gcodeZoffset,0
;   overrideMachineDefinition,1
;   machineTypeOverride,0
;   strokeXoverride,220
;   strokeYoverride,220
;   strokeZoverride,250
;   originOffsetXoverride,0
;   originOffsetYoverride,0
;   originOffsetZoverride,0
;   homeXdirOverride,-1
;   homeYdirOverride,-1
;   homeZdirOverride,-1
;   flipXoverride,1
;   flipYoverride,-1
;   flipZoverride,1
;   toolheadOffsets,0,0|0,0|0,0|0,0|0,0|0,0
;   overrideFirmwareConfiguration,1
;   firmwareTypeOverride,RepRap (Marlin/Repetier/Sprinter)
;   GPXconfigOverride,r2
;   baudRateOverride,115200
;   overridePrinterModels,1
;   printerModelsOverride
;   startingGcode,G28 ; home all axes,G1 Z5 F3000 ; lift,G1 X5 Y10 F1500 ; move to prime,G1 Z0.2 F3000 ; get ready to prime,G92 E0 ; reset extrusion distance,G1 Y80 E10 F600 ; prime nozzle,G1 Y100 F5000 ; quick wipe
;   layerChangeGcode,
;   retractionGcode,
;   toolChangeGcode,
;   endingGcode,G28 X0 ; home x axis,M106 S0 ; turn off cooling fan,M104 S0 ; turn off extruder,M140 S0 ; turn off bed,M84 ; disable motors
;   exportFileFormat,gcode
;   celebration,0
;   celebrationSong,Funky Town
;   postProcessing,
;   defaultSpeed,3600
;   outlineUnderspeed,0.5
;   solidInfillUnderspeed,0.8
;   supportUnderspeed,0.8
;   rapidXYspeed,4800
;   rapidZspeed,1002
;   minBridgingArea,50
;   bridgingExtraInflation,0
;   bridgingExtrusionMultiplier,1
;   bridgingSpeedMultiplier,1
;   useFixedBridgingAngle,0
;   fixedBridgingAngle,0
;   applyBridgingToPerimeters,0
;   filamentDiameters,1.75|1.75|1.75|1.75|1.75|1.75
;   filamentPricesPerKg,46|46|46|46|46|46
;   filamentDensities,1.25|1.25|1.25|1.25|1.25|1.25
;   useMinPrintHeight,0
;   minPrintHeight,0
;   useMaxPrintHeight,0
;   maxPrintHeight,0
;   useDiaphragm,0
;   diaphragmLayerInterval,20
;   robustSlicing,1
;   mergeAllIntoSolid,0
;   onlyRetractWhenCrossingOutline,1
;   retractBetweenLayers,1
;   useRetractionMinTravel,0
;   retractionMinTravel,3
;   retractWhileWiping,0
;   onlyWipeOutlines,1
;   avoidCrossingOutline,0
;   maxMovementDetourFactor,3
;   toolChangeRetractionDistance,12
;   toolChangeExtraRestartDistance,-0.5
;   toolChangeRetractionSpeed,600
;   externalThinWallType,0
;   internalThinWallType,2
;   thinWallAllowedOverlapPercentage,10
;   singleExtrusionMinLength,1
;   singleExtrusionMinPrintingWidthPercentage,50
;   singleExtrusionMaxPrintingWidthPercentage,200
;   singleExtrusionEndpointExtension,0.2
;   horizontalSizeCompensation,0
G90
M82
M106 S0
M140 S40
M190 S40
M104 S210 T0
M109 S210 T0
G28 ; home all axes
G1 Z5 F3000 ; lift
G1 X5 Y10 F1500 ; move to prime
G1 Z0.2 F3000 ; get ready to prime
G92 E0 ; reset extrusion distance
G1 Y80 E10 F600 ; prime nozzle
G1 Y100 F5000 ; quick wipe
; process Process1
; layer 1, Z = 0.190
T0
G92 E0.0000
G1 E-5.0000 F1800
; feature inner perimeter
; tool H0.190 W0.504
G1 Z1.000 F1002
G1 X65.678 Y49.815 F4800
G1 Z0.190 F1002
G1 E0.0000 F1800
G92 E0.0000
G1 X65.641 Y49.773 E0.0022 F1080
G1 X65.622 Y49.742 E0.0037
G1 X65.608 Y49.707 E0.0052
G1 X65.599 Y49.671 E0.0066
G1 X65.592 Y49.586 E0.0101
G1 X65.592 Y27.684 E0.8820
G1 X65.599 Y27.596 E0.8855
G1 X65.608 Y27.561 E0.8870
G1 X65.622 Y27.527 E0.8884
G1 X65.651 Y27.480 E0.8906
G1 X65.693 Y27.443 E0.8929
G1 X65.740 Y27.414 E0.8951
G1 X65.798 Y27.401 E0.8974
G1 X65.881 Y27.394 E0.9008
G1 X154.782 Y27.394 E4.4401
G1 X154.887 Y27.403 E4.4443
G1 X154.957 Y27.432 E4.4473
G1 X155.013 Y27.479 E4.4503
G1 X155.043 Y27.527 E4.4525
G1 X155.056 Y27.561 E4.4539
G1 X155.065 Y27.597 E4.4554
G1 X155.072 Y27.683 E4.4588
G1 X155.072 Y49.584 E5.3308
G1 X155.064 Y49.689 E5.3350
G1 X155.042 Y49.743 E5.3373
G1 X155.013 Y49.789 E5.3395
G1 X154.971 Y49.825 E5.3417
G1 X154.940 Y49.844 E5.3431
G1 X154.906 Y49.859 E5.3446
G1 X154.869 Y49.867 E5.3461
G1 X154.782 Y49.874 E5.3496
G1 X65.882 Y49.874 E8.8889
G1 X65.865 Y49.873 E8.8896
G1 X65.777 Y49.866 F1080
G1 X65.724 Y49.844
G1 X65.678 Y49.815
G1 X65.309 Y50.160 F4800
G92 E0.0000
G1 X65.233 Y50.071 E0.0047 F1080
G1 X65.172 Y49.972 E0.0093
G1 X65.127 Y49.864 E0.0139
G1 X65.100 Y49.751 E0.0186
G1 X65.088 Y49.606 E0.0244
G1 X65.088 Y27.664 E0.8979
G1 X65.100 Y27.517 E0.9038
G1 X65.127 Y27.404 E0.9084
G1 X65.172 Y27.297 E0.9131
G1 X65.233 Y27.197 E0.9177
G1 X65.306 Y27.111 E0.9222
G1 X65.395 Y27.035 E0.9269
G1 X65.495 Y26.974 E0.9315
G1 X65.601 Y26.930 E0.9361
G1 X65.719 Y26.901 E0.9409
G1 X65.862 Y26.890 E0.9466
G1 X154.802 Y26.890 E4.4876
G1 X154.950 Y26.902 E4.4935
G1 X155.059 Y26.928 E4.4979
G1 X155.170 Y26.974 E4.5027
G1 X155.269 Y27.035 E4.5073
G1 X155.358 Y27.111 E4.5120
G1 X155.431 Y27.197 E4.5165
G1 X155.492 Y27.297 E4.5211
G1 X155.537 Y27.404 E4.5258
G1 X155.565 Y27.517 E4.5304
G1 X155.576 Y27.662 E4.5362
G1 X155.576 Y49.604 E5.4098
G1 X155.564 Y49.752 E5.4157
G1 X155.538 Y49.861 E5.4201
G1 X155.492 Y49.972 E5.4249
G1 X155.431 Y50.072 E5.4296
G1 X155.358 Y50.157 E5.4341
G1 X155.269 Y50.234 E5.4387
G1 X155.170 Y50.294 E5.4434
G1 X155.062 Y50.339 E5.4480
G1 X154.949 Y50.366 E5.4526
G1 X154.802 Y50.378 E5.4585
G1 X65.862 Y50.378 E8.9994
G1 X65.715 Y50.366 E9.0053
G1 X65.606 Y50.340 E9.0098
G1 X65.494 Y50.294 E9.0146
G1 X65.469 Y50.279 E9.0157
G1 X65.395 Y50.233 F1080
G1 X65.309 Y50.160
; feature outer perimeter
G1 X64.952 Y50.518 F4800
G92 E0.0000
G1 X64.824 Y50.369 E0.0078 F720
G1 X64.722 Y50.202 E0.0156
G1 X64.647 Y50.021 E0.0234
G1 X64.601 Y49.831 E0.0312
G1 X64.584 Y49.626 E0.0394
G1 X64.584 Y27.644 E0.9145
G1 X64.601 Y27.438 E0.9228
G1 X64.647 Y27.247 E0.9306
G1 X64.722 Y27.066 E0.9384
G1 X64.824 Y26.899 E0.9462
G1 X64.949 Y26.754 E0.9538
G1 X65.098 Y26.626 E0.9616
G1 X65.264 Y26.524 E0.9694
G1 X65.445 Y26.449 E0.9772
G1 X65.640 Y26.402 E0.9852
G1 X65.842 Y26.386 E0.9932
G1 X154.822 Y26.386 E4.5357
G1 X155.029 Y26.403 E4.5440
G1 X155.215 Y26.447 E4.5516
G1 X155.400 Y26.524 E4.5596
G1 X155.567 Y26.626 E4.5674
G1 X155.716 Y26.754 E4.5752
G1 X155.840 Y26.899 E4.5828
G1 X155.943 Y27.066 E4.5906
G1 X156.018 Y27.247 E4.5984
G1 X156.064 Y27.438 E4.6062
G1 X156.080 Y27.642 E4.6144
G1 X156.080 Y49.624 E5.4895
G1 X156.064 Y49.831 E5.4978
G1 X156.019 Y50.017 E5.5054
G1 X155.942 Y50.202 E5.5134
G1 X155.840 Y50.369 E5.5212
G1 X155.716 Y50.514 E5.5288
G1 X155.567 Y50.642 E5.5366
G1 X155.400 Y50.745 E5.5444
G1 X155.219 Y50.820 E5.5522
G1 X155.029 Y50.866 E5.5600
G1 X154.822 Y50.882 E5.5682
G1 X65.842 Y50.882 E9.1107
G1 X65.635 Y50.866 E9.1190
G1 X65.449 Y50.821 E9.1266
G1 X65.264 Y50.744 E9.1346
G1 X65.105 Y50.646 E9.1420
G1 X65.097 Y50.642 F720
G1 X64.952 Y50.518
; feature solid layer
G1 X66.261 Y49.446 F4800
G92 E0.0000
G1 X66.021 Y49.205 E0.0135 F1152
G1 X66.021 Y48.493 E0.0419
G1 X66.974 Y49.446 E0.0956
G1 X67.687 Y49.446 E0.1239
G1 X66.021 Y47.780 E0.2177
G1 X66.021 Y47.067 E0.2461
G1 X68.399 Y49.446 E0.3800
G1 X69.112 Y49.446 E0.4084
G1 X66.021 Y46.354 E0.5825
G1 X66.021 Y45.642 E0.6109
G1 X69.825 Y49.446 E0.8250
G1 X70.538 Y49.446 E0.8534
G1 X66.021 Y44.929 E1.1077
G1 X66.021 Y44.216 E1.1361
G1 X71.250 Y49.446 E1.4306
G1 X71.963 Y49.446 E1.4589
G1 X66.021 Y43.503 E1.7935
G1 X66.021 Y42.791 E1.8219
G1 X72.676 Y49.446 E2.1966
G1 X73.389 Y49.446 E2.2250
G1 X66.021 Y42.078 E2.6398
G1 X66.021 Y41.365 E2.6682
G1 X74.101 Y49.446 E3.1232
G1 X74.814 Y49.446 E3.1516
G1 X66.021 Y40.652 E3.6467
G1 X66.021 Y39.939 E3.6750
G1 X75.527 Y49.446 E4.2103
G1 X76.240 Y49.446 E4.2387
G1 X66.021 Y39.227 E4.8140
G1 X66.021 Y38.514 E4.8424
G1 X76.952 Y49.446 E5.4579
G1 X77.665 Y49.446 E5.4863
G1 X66.021 Y37.801 E6.1419
G1 X66.021 Y37.088 E6.1703
G1 X78.378 Y49.446 E6.8660
G1 X79.091 Y49.446 E6.8944
G1 X66.021 Y36.376 E7.6303
G1 X66.021 Y35.663 E7.6587
G1 X79.804 Y49.446 E8.4347
G1 X80.516 Y49.446 E8.4631
G1 X66.021 Y34.950 E9.2792
G1 X66.021 Y34.237 E9.3076
G1 X81.229 Y49.446 E10.1639
G1 X81.942 Y49.446 E10.1923
G1 X66.021 Y33.525 E11.0887
G1 X66.021 Y32.812 E11.1171
G1 X82.655 Y49.446 E12.0536
G1 X83.367 Y49.446 E12.0820
G1 X66.021 Y32.099 E13.0587
G1 X66.021 Y31.386 E13.0870
G1 X84.080 Y49.446 E14.1038
G1 X84.793 Y49.446 E14.1322
G1 X66.021 Y30.674 E15.1892
G1 X66.021 Y29.961 E15.2175
G1 X85.506 Y49.446 E16.3146
G1 X86.218 Y49.446 E16.3430
G1 X66.021 Y29.248 E17.4802
G1 X66.021 Y28.535 E17.5086
G1 X86.931 Y49.446 E18.6859
G1 X87.644 Y49.446 E18.7143
G1 X66.021 Y27.823 E19.9317
G1 X66.733 Y27.823 E19.9601
G1 X88.357 Y49.446 E21.1776
G1 X89.069 Y49.446 E21.2059
G1 X67.446 Y27.823 E22.4234
G1 X68.159 Y27.823 E22.4518
G1 X89.782 Y49.446 E23.6692
G1 X90.495 Y49.446 E23.6976
G1 X68.872 Y27.823 E24.9150
G1 X69.585 Y27.823 E24.9434
G1 X91.208 Y49.446 E26.1609
G1 X91.921 Y49.446 E26.1893
G1 X70.297 Y27.823 E27.4067
G1 X71.010 Y27.823 E27.4351
G1 X92.633 Y49.446 E28.6525
G1 X93.346 Y49.446 E28.6809
G1 X71.723 Y27.823 E29.8984
G1 X72.436 Y27.823 E29.9268
G1 X94.059 Y49.446 E31.1442
G1 X94.772 Y49.446 E31.1726
G1 X73.148 Y27.823 E32.3900
G1 X73.861 Y27.823 E32.4184
G1 X95.484 Y49.446 E33.6359
G1 X96.197 Y49.446 E33.6643
G1 X74.574 Y27.823 E34.8817
G1 X75.287 Y27.823 E34.9101
G1 X96.910 Y49.446 E36.1275
G1 X97.623 Y49.446 E36.1559
G1 X75.999 Y27.823 E37.3734
G1 X76.712 Y27.823 E37.4017
G1 X98.335 Y49.446 E38.6192
G1 X99.048 Y49.446 E38.6476
G1 X77.425 Y27.823 E39.8650
G1 X78.138 Y27.823 E39.8934
G1 X99.761 Y49.446 E41.1109
G1 X100.474 Y49.446 E41.1392
G1 X78.850 Y27.823 E42.3567
G1 X79.563 Y27.823 E42.3851
G1 X101.186 Y49.446 E43.6025
G1 X101.899 Y49.446 E43.6309
G1 X80.276 Y27.823 E44.8484
G1 X80.989 Y27.823 E44.8767
G1 X102.612 Y49.446 E46.0942
G1 X103.325 Y49.446 E46.1226
G1 X81.702 Y27.823 E47.3400
G1 X82.414 Y27.823 E47.3684
G1 X104.037 Y49.446 E48.5859
G1 X104.750 Y49.446 E48.6142
G1 X83.127 Y27.823 E49.8317
G1 X83.840 Y27.823 E49.8601
G1 X105.463 Y49.446 E51.0775
G1 X106.176 Y49.446 E51.1059
G1 X84.553 Y27.823 E52.3234
G1 X85.265 Y27.823 E52.3517
G1 X106.889 Y49.446 E53.5692
G1 X107.601 Y49.446 E53.5976
G1 X85.978 Y27.823 E54.8150
G1 X86.691 Y27.823 E54.8434
G1 X108.314 Y49.446 E56.0609
G1 X109.027 Y49.446 E56.0892
G1 X87.404 Y27.823 E57.3067
G1 X88.116 Y27.823 E57.3351
G1 X109.740 Y49.446 E58.5525
G1 X110.452 Y49.446 E58.5809
G1 X88.829 Y27.823 E59.7984
G1 X89.542 Y27.823 E59.8267
G1 X111.165 Y49.446 E61.0442
G1 X111.878 Y49.446 E61.0726
G1 X90.255 Y27.823 E62.2900
G1 X90.967 Y27.823 E62.3184
G1 X112.591 Y49.446 E63.5359
G1 X113.303 Y49.446 E63.5642
G1 X91.680 Y27.823 E64.7817
G1 X92.393 Y27.823 E64.8101
G1 X114.016 Y49.446 E66.0275
G1 X114.729 Y49.446 E66.0559
G1 X93.106 Y27.823 E67.2733
G1 X93.819 Y27.823 E67.3017
G1 X115.442 Y49.446 E68.5192
G1 X116.154 Y49.446 E68.5476
G1 X94.531 Y27.823 E69.7650
G1 X95.244 Y27.823 E69.7934
G1 X116.867 Y49.446 E71.0108
G1 X117.580 Y49.446 E71.0392
G1 X95.957 Y27.823 E72.2567
G1 X96.670 Y27.823 E72.2851
G1 X118.293 Y49.446 E73.5025
G1 X119.006 Y49.446 E73.5309
G1 X97.382 Y27.823 E74.7483
G1 X98.095 Y27.823 E74.7767
G1 X119.718 Y49.446 E75.9942
G1 X120.431 Y49.446 E76.0226
G1 X98.808 Y27.823 E77.2400
G1 X99.521 Y27.823 E77.2684
G1 X121.144 Y49.446 E78.4858
G1 X121.857 Y49.446 E78.5142
G1 X100.233 Y27.823 E79.7317
G1 X100.946 Y27.823 E79.7600
G1 X122.569 Y49.446 E80.9775
G1 X123.282 Y49.446 E81.0059
G1 X101.659 Y27.823 E82.2233
G1 X102.372 Y27.823 E82.2517
G1 X123.995 Y49.446 E83.4692
G1 X124.708 Y49.446 E83.4975
G1 X103.084 Y27.823 E84.7150
G1 X103.797 Y27.823 E84.7434
G1 X125.420 Y49.446 E85.9608
G1 X126.133 Y49.446 E85.9892
G1 X104.510 Y27.823 E87.2067
G1 X105.223 Y27.823 E87.2350
G1 X126.846 Y49.446 E88.4525
G1 X127.559 Y49.446 E88.4809
G1 X105.935 Y27.823 E89.6983
G1 X106.648 Y27.823 E89.7267
G1 X128.271 Y49.446 E90.9442
G1 X128.984 Y49.446 E90.9725
G1 X107.361 Y27.823 E92.1900
G1 X108.074 Y27.823 E92.2184
G1 X129.697 Y49.446 E93.4358
G1 X130.410 Y49.446 E93.4642
G1 X108.787 Y27.823 E94.6817
G1 X109.499 Y27.823 E94.7100
G1 X131.123 Y49.446 E95.9275
G1 X131.835 Y49.446 E95.9559
G1 X110.212 Y27.823 E97.1733
G1 X110.925 Y27.823 E97.2017
G1 X132.548 Y49.446 E98.4192
G1 X133.261 Y49.446 E98.4475
G1 X111.638 Y27.823 E99.6650
G1 X112.350 Y27.823 E99.6934
G1 X133.974 Y49.446 E100.9108
G1 X134.686 Y49.446 E100.9392
G1 X113.063 Y27.823 E102.1567
G1 X113.776 Y27.823 E102.1850
G1 X135.399 Y49.446 E103.4025
G1 X136.112 Y49.446 E103.4309
G1 X114.489 Y27.823 E104.6483
G1 X115.201 Y27.823 E104.6767
G1 X136.825 Y49.446 E105.8942
G1 X137.537 Y49.446 E105.9225
G1 X115.914 Y27.823 E107.1400
G1 X116.627 Y27.823 E107.1684
G1 X138.250 Y49.446 E108.3858
G1 X138.963 Y49.446 E108.4142
G1 X117.340 Y27.823 E109.6317
G1 X118.052 Y27.823 E109.6600
G1 X139.676 Y49.446 E110.8775
G1 X140.388 Y49.446 E110.9059
G1 X118.765 Y27.823 E112.1233
G1 X119.478 Y27.823 E112.1517
G1 X141.101 Y49.446 E113.3691
G1 X141.814 Y49.446 E113.3975
G1 X120.191 Y27.823 E114.6150
G1 X120.904 Y27.823 E114.6434
G1 X142.527 Y49.446 E115.8608
G1 X143.239 Y49.446 E115.8892
G1 X121.616 Y27.823 E117.1066
G1 X122.329 Y27.823 E117.1350
G1 X143.952 Y49.446 E118.3525
G1 X144.665 Y49.446 E118.3809
G1 X123.042 Y27.823 E119.5983
